assets/images/members/resquant/resquant.svg

<svg xmlns="http://www.w3.org/2000/svg" fill="none" viewBox="0 0 600 300"><g fill-opacity=".988" clip-path="url(#a)"><path fill="#000" d="M78.918 138.082h-7.37L59.87 164.559h7.623l2.1-5.149h11.172l2.1 5.149h7.77zm-.336 15.802h-6.825l3.423-8.469zm39.354-15.802h-7.329v14.1l-11.697-14.1h-6.153v26.477h7.329v-14.1l11.697 14.1h6.153zm2.793 5.946h8.148v20.531h7.476v-20.531h8.085v-5.946h-23.709zm-87.633-5.946v14.667q0 5.926 3.276 9.141 3.255 3.194 9.177 3.194 5.88 0 9.156-3.194 3.276-3.215 3.276-9.141v-14.667h-7.392v14.457q0 6.346-4.977 6.346-5.02 0-5.02-6.346v-14.457zm-5.607 6.157q-1.911-3.132-5.25-4.917-3.339-1.766-7.56-1.766-4.179 0-7.518 1.766-3.36 1.785-5.271 4.917Q0 147.391 0 151.32q0 3.447 1.491 6.304a12.76 12.76 0 0 0 4.158 4.77q2.688 1.912 6.132 2.459 2.226 2.353 4.032 3.656 1.785 1.303 3.549 1.87 1.806.567 3.969.568 2.268 0 4.2-.841a9 9 0 0 0 3.234-2.48l-3.255-3.866q-1.785 1.85-4.032 1.849a3.8 3.8 0 0 1-1.596-.336q-.714-.336-1.47-1.177 4.116-1.449 6.552-4.896 2.436-3.404 2.436-7.88 0-3.929-1.911-7.081m-6.615 3.131q.945 1.701.945 3.95 0 2.228-.945 3.951-.924 1.723-2.562 2.668-1.617.946-3.633.946-1.995 0-3.612-.946-1.617-.945-2.583-2.668-.945-1.723-.945-3.951 0-2.249.945-3.95.966-1.724 2.583-2.669t3.612-.946q2.016 0 3.633.946 1.638.945 2.562 2.669m330.646-9.288h-1.911v26.477h17.157v-1.745H351.52zm-12.621 1.765q-2.394-1.765-6.7-1.765h-11.025v26.477h11.782q4.849 0 7.307-1.808 2.436-1.827 2.436-5.19-.001-2.71-1.49-4.413-1.491-1.722-4.305-2.248 2.016-.672 3.212-2.228 1.198-1.554 1.198-3.824 0-3.236-2.415-5.001m-15.814-.084h9.051q3.464 0 5.356 1.324 1.847 1.344 1.848 3.908 0 2.627-1.848 3.951-1.892 1.344-5.356 1.345h-9.051zm9.871 23.136h-9.871v-10.927h9.871q3.864 0 5.836 1.323 1.995 1.304 1.995 4.119 0 2.794-1.995 4.14-1.972 1.344-5.836 1.345m63.755-11.579q0-3.825-1.806-6.892-1.806-3.047-4.934-4.812-3.129-1.723-7.035-1.723-3.886 0-7.036 1.744-3.128 1.785-4.913 4.854-1.807 3.047-1.807 6.829 0 3.783 1.807 6.85 1.784 3.069 4.913 4.812 3.15 1.766 7.036 1.766 3.906 0 7.035-1.745a12.77 12.77 0 0 0 4.934-4.79q1.806-3.068 1.806-6.893m-3.528-5.947q1.554 2.649 1.554 5.947 0 3.278-1.554 5.968a11.24 11.24 0 0 1-4.221 4.161q-2.708 1.513-6.026 1.513-3.319 0-6.027-1.513t-4.242-4.161q-1.554-2.69-1.554-5.968 0-3.298 1.554-5.947a10.9 10.9 0 0 1 4.242-4.202q2.708-1.513 6.027-1.513t6.026 1.513a11.14 11.14 0 0 1 4.221 4.202m9.597 5.947q0-3.298 1.555-5.947a10.87 10.87 0 0 1 4.263-4.202q2.729-1.513 6.048-1.513 4.934 0 8.127 3.152l1.217-1.24q-1.7-1.807-4.116-2.753-2.436-.924-5.312-.924-3.885 0-7.015 1.723-3.108 1.765-4.892 4.812-1.807 3.067-1.807 6.892t1.807 6.893a12.66 12.66 0 0 0 4.892 4.79q3.13 1.745 7.015 1.745 2.855 0 5.291-.946 2.437-.945 4.137-2.753l-1.217-1.26q-3.215 3.173-8.127 3.173-3.32 0-6.048-1.513-2.73-1.513-4.263-4.161-1.555-2.69-1.555-5.968m-230.895 1.429v-14.667h-7.392v14.457q0 6.346-4.977 6.346-5.019 0-5.019-6.346v-14.457H147v14.667q0 5.926 3.276 9.141 3.255 3.194 9.177 3.194 5.88 0 9.156-3.194 3.276-3.215 3.276-9.141m11.214-14.667h-6.153v26.477h6.909V150.9l6.783 11.053h3.318l6.804-11.431.084 14.037h6.867l-.084-26.477h-6.132l-9.093 15.276zm415.695 2.185q-1.553-1.093-3.653-1.723a14.7 14.7 0 0 0-4.326-.651q-3.13 0-5.23.945-2.099.946-3.107 2.564a6.4 6.4 0 0 0-1.03 3.53q0 2.375 1.24 3.803a7.5 7.5 0 0 0 2.981 2.102q1.744.672 4.662 1.387 2.563.609 4.095 1.177 1.512.567 2.522 1.617 1.007 1.073 1.007 2.858 0 2.29-1.912 3.72-1.931 1.45-5.712 1.45-2.604 0-4.976-.925-2.352-.924-3.739-2.395l-.902 1.428q1.491 1.598 4.116 2.585a15.3 15.3 0 0 0 5.543 1.009q3.13 0 5.272-.946 2.162-.945 3.191-2.522a6.2 6.2 0 0 0 1.072-3.53q0-2.354-1.24-3.719a7.4 7.4 0 0 0-2.981-2.059q-1.722-.694-4.62-1.408-2.626-.652-4.137-1.198-1.513-.588-2.541-1.639-1.01-1.072-1.009-2.837 0-2.354 1.891-3.824 1.89-1.471 5.544-1.471 1.87 0 3.758.567 1.913.567 3.507 1.66zm-93.177-2.185h-1.911v12.188h-17.702v-12.188h-1.911v26.477h1.911v-12.587h17.702v12.587h1.911zm-54.39 0h-2.331l-16.527 17.021v-17.021h-1.911v26.477h1.911v-6.956l5.944-6.094 11.381 13.05h2.33l-12.43-14.437zm11.004 3.089q2.731-1.513 6.048-1.513 4.936 0 8.127 3.152l1.219-1.24q-1.702-1.807-4.116-2.753-2.437-.924-5.314-.924-3.885 0-7.013 1.723-3.108 1.765-4.895 4.812-1.803 3.067-1.804 6.892 0 3.825 1.804 6.893a12.67 12.67 0 0 0 4.895 4.79q3.128 1.745 7.013 1.745 2.857 0 5.293-.946 2.435-.945 4.137-2.753l-1.219-1.26q-3.212 3.173-8.127 3.173-3.317 0-6.048-1.513t-4.263-4.161q-1.554-2.69-1.553-5.968-.001-3.298 1.553-5.947a10.9 10.9 0 0 1 4.263-4.202m111.952-3.089h-1.911v23.009l-17.998-23.009h-1.617v26.477h1.911V141.57l18.04 22.989h1.575zm-49.666 0h-1.911l-12.18 26.477h2.079l3.361-7.439h15.35l3.403 7.439h2.079zm-.965 2.122 6.951 15.277h-13.882zm19.865-2.122h-1.911v26.477h1.911z"/><path fill="#7ec7ba" d="m256.305 168.719-18.984-18.996 18.984-18.996V85.359H95.55v44.485h21v-23.472h118.755v87.164H116.55v-21.665h-21v42.678h139.755v61.359h21zM295.471 24h-21v107.462l-18.25 18.261 18.25 18.261v46.565h160.756v-42.678h-21v21.665H295.471v-87.164h118.756v23.472h21V85.359H295.471z"/></g><defs><clipPath id="a"><path fill="#fff" d="M0 24h600v251.908H0z"/></clipPath></defs></svg>

<svg viewBox="0 0 600 300" fill="none" 
  xmlns="http://www.w3.org/2000/svg">
  <g clip-path="url(#clip0_1_10)">
    <path d="M78.918 138.082H71.5471L59.871 164.559H67.4941L69.5941 159.41H80.7661L82.8661 164.559H90.6361L78.918 138.082ZM78.5822 153.884H71.7571L75.18 145.415L78.5822 153.884ZM117.936 138.082H110.607V152.182L98.91 138.082H92.7571V164.559H100.086V150.459L111.783 164.559H117.936V138.082ZM120.729 144.028H128.877V164.559H136.353V144.028H144.438V138.082H120.729V144.028ZM33.0961 138.082V152.749C33.0961 156.699 34.188 159.747 36.372 161.89C38.542 164.019 41.601 165.084 45.549 165.084C49.469 165.084 52.521 164.019 54.7051 161.89C56.889 159.747 57.981 156.699 57.981 152.749V138.082H50.589V152.539C50.589 156.77 48.93 158.885 45.612 158.885C42.266 158.885 40.5929 156.77 40.5929 152.539V138.082H33.0961ZM27.489 144.239C26.215 142.151 24.4651 140.512 22.239 139.322C20.013 138.145 17.493 137.556 14.679 137.556C11.893 137.556 9.387 138.145 7.161 139.322C4.92101 140.512 3.16399 142.151 1.89 144.239C0.63 146.34 0 148.701 0 151.32C0 153.618 0.496995 155.719 1.491 157.624C2.47099 159.557 3.85699 161.147 5.649 162.394C7.44101 163.669 9.48501 164.488 11.781 164.853C13.265 166.422 14.609 167.64 15.813 168.509C17.003 169.378 18.186 170.001 19.362 170.379C20.566 170.757 21.8891 170.947 23.331 170.947C24.8429 170.947 26.2431 170.666 27.531 170.106C28.791 169.532 29.8691 168.705 30.7651 167.626L27.51 163.76C26.3201 164.993 24.9759 165.609 23.478 165.609C22.9041 165.609 22.372 165.497 21.882 165.273C21.4059 165.049 20.916 164.657 20.412 164.096C23.156 163.13 25.3399 161.498 26.9639 159.2C28.5881 156.931 29.4 154.304 29.4 151.32C29.4 148.701 28.7631 146.34 27.489 144.239ZM20.874 147.37C21.5039 148.504 21.819 149.821 21.819 151.32C21.819 152.805 21.5039 154.122 20.874 155.271C20.258 156.419 19.404 157.309 18.312 157.939C17.234 158.57 16.023 158.885 14.679 158.885C13.349 158.885 12.145 158.57 11.067 157.939C9.98901 157.309 9.12799 156.419 8.484 155.271C7.854 154.122 7.539 152.805 7.539 151.32C7.539 149.821 7.854 148.504 8.484 147.37C9.12799 146.221 9.98901 145.331 11.067 144.701C12.145 144.07 13.349 143.755 14.679 143.755C16.023 143.755 17.234 144.07 18.312 144.701C19.404 145.331 20.258 146.221 20.874 147.37ZM351.52 138.082H349.609V164.559H366.766V162.814H351.52V138.082ZM338.899 139.847C337.303 138.67 335.069 138.082 332.199 138.082H321.174V164.559H332.956C336.189 164.559 338.624 163.956 340.263 162.751C341.887 161.533 342.699 159.803 342.699 157.561C342.699 155.754 342.201 154.283 341.209 153.148C340.215 152 338.78 151.25 336.904 150.9C338.247 150.452 339.319 149.709 340.116 148.672C340.915 147.636 341.314 146.361 341.314 144.848C341.314 142.691 340.508 141.024 338.899 139.847ZM323.085 139.763H332.136C334.445 139.763 336.231 140.204 337.492 141.087C338.723 141.983 339.34 143.286 339.34 144.995C339.34 146.746 338.723 148.063 337.492 148.946C336.231 149.842 334.445 150.291 332.136 150.291H323.085V139.763ZM332.956 162.899H323.085V151.972H332.956C335.532 151.972 337.477 152.413 338.792 153.295C340.122 154.164 340.787 155.537 340.787 157.414C340.787 159.277 340.122 160.657 338.792 161.554C337.477 162.45 335.532 162.899 332.956 162.899ZM396.711 151.32C396.711 148.77 396.109 146.473 394.905 144.428C393.701 142.396 392.056 140.793 389.971 139.616C387.885 138.467 385.54 137.893 382.936 137.893C380.345 137.893 378 138.474 375.9 139.637C373.815 140.827 372.176 142.445 370.987 144.491C369.783 146.522 369.18 148.799 369.18 151.32C369.18 153.842 369.783 156.125 370.987 158.17C372.176 160.216 373.815 161.82 375.9 162.982C378 164.159 380.345 164.748 382.936 164.748C385.54 164.748 387.885 164.166 389.971 163.003C392.056 161.855 393.701 160.258 394.905 158.213C396.109 156.167 396.711 153.87 396.711 151.32ZM393.183 145.373C394.219 147.139 394.737 149.121 394.737 151.32C394.737 153.505 394.219 155.495 393.183 157.288C392.148 159.053 390.741 160.44 388.962 161.449C387.157 162.457 385.148 162.962 382.936 162.962C380.723 162.962 378.715 162.457 376.909 161.449C375.103 160.44 373.689 159.053 372.667 157.288C371.631 155.495 371.113 153.505 371.113 151.32C371.113 149.121 371.631 147.139 372.667 145.373C373.689 143.58 375.103 142.179 376.909 141.171C378.715 140.162 380.723 139.658 382.936 139.658C385.148 139.658 387.157 140.162 388.962 141.171C390.741 142.179 392.148 143.58 393.183 145.373ZM402.78 151.32C402.78 149.121 403.299 147.139 404.335 145.373C405.357 143.58 406.777 142.179 408.598 141.171C410.417 140.162 412.433 139.658 414.646 139.658C417.936 139.658 420.644 140.708 422.773 142.81L423.99 141.57C422.857 140.365 421.485 139.448 419.874 138.817C418.25 138.201 416.48 137.893 414.562 137.893C411.971 137.893 409.634 138.467 407.547 139.616C405.476 140.793 403.844 142.396 402.655 144.428C401.45 146.473 400.848 148.77 400.848 151.32C400.848 153.87 401.45 156.167 402.655 158.213C403.844 160.258 405.476 161.855 407.547 163.003C409.634 164.166 411.971 164.748 414.562 164.748C416.465 164.748 418.229 164.432 419.853 163.802C421.477 163.172 422.857 162.254 423.99 161.049L422.773 159.789C420.629 161.904 417.921 162.962 414.646 162.962C412.433 162.962 410.417 162.457 408.598 161.449C406.777 160.44 405.357 159.053 404.335 157.288C403.299 155.495 402.78 153.505 402.78 151.32ZM171.885 152.749V138.082H164.493V152.539C164.493 156.77 162.834 158.885 159.516 158.885C156.17 158.885 154.497 156.77 154.497 152.539V138.082H147V152.749C147 156.699 148.092 159.747 150.276 161.89C152.446 164.019 155.505 165.084 159.453 165.084C163.373 165.084 166.425 164.019 168.609 161.89C170.793 159.747 171.885 156.699 171.885 152.749ZM183.099 138.082H176.946V164.559H183.855V150.9L190.638 161.953H193.956L200.76 150.522L200.844 164.559H207.711L207.627 138.082H201.495L192.402 153.358L183.099 138.082ZM598.794 140.267C597.759 139.539 596.541 138.964 595.141 138.544C593.727 138.11 592.284 137.893 590.815 137.893C588.728 137.893 586.985 138.208 585.585 138.838C584.186 139.469 583.15 140.323 582.478 141.402C581.792 142.466 581.448 143.643 581.448 144.932C581.448 146.515 581.861 147.783 582.688 148.735C583.5 149.674 584.494 150.374 585.669 150.837C586.831 151.285 588.386 151.747 590.331 152.224C592.041 152.63 593.404 153.022 594.426 153.401C595.435 153.779 596.274 154.318 596.948 155.018C597.619 155.733 597.955 156.686 597.955 157.876C597.955 159.403 597.317 160.643 596.043 161.596C594.755 162.562 592.852 163.046 590.331 163.046C588.596 163.046 586.936 162.737 585.355 162.121C583.787 161.505 582.541 160.706 581.616 159.726L580.714 161.154C581.708 162.219 583.08 163.081 584.83 163.739C586.58 164.411 588.428 164.748 590.373 164.748C592.46 164.748 594.216 164.432 595.645 163.802C597.086 163.172 598.15 162.331 598.836 161.28C599.551 160.216 599.908 159.039 599.908 157.75C599.908 156.181 599.494 154.941 598.668 154.031C597.856 153.106 596.862 152.42 595.687 151.972C594.539 151.509 592.999 151.04 591.067 150.564C589.317 150.129 587.937 149.73 586.93 149.366C585.921 148.974 585.075 148.427 584.389 147.727C583.716 147.012 583.38 146.067 583.38 144.89C583.38 143.321 584.01 142.046 585.271 141.066C586.531 140.085 588.378 139.595 590.815 139.595C592.062 139.595 593.314 139.784 594.573 140.162C595.848 140.54 597.017 141.094 598.08 141.822L598.794 140.267ZM505.617 138.082H503.706V150.27H486.004V138.082H484.093V164.559H486.004V151.972H503.706V164.559H505.617V138.082ZM451.227 138.082H448.896L432.369 155.103V138.082H430.458V164.559H432.369V157.603L438.313 151.509L449.694 164.559H452.024L439.594 150.122L451.227 138.082ZM462.231 141.171C464.052 140.162 466.068 139.658 468.279 139.658C471.569 139.658 474.279 140.708 476.406 142.81L477.625 141.57C476.49 140.365 475.118 139.448 473.509 138.817C471.885 138.201 470.113 137.893 468.195 137.893C465.606 137.893 463.267 138.467 461.182 139.616C459.109 140.793 457.479 142.396 456.287 144.428C455.085 146.473 454.483 148.77 454.483 151.32C454.483 153.87 455.085 156.167 456.287 158.213C457.479 160.258 459.109 161.855 461.182 163.003C463.267 164.166 465.606 164.748 468.195 164.748C470.1 164.748 471.864 164.432 473.488 163.802C475.112 163.172 476.49 162.254 477.625 161.049L476.406 159.789C474.264 161.904 471.556 162.962 468.279 162.962C466.068 162.962 464.052 162.457 462.231 161.449C460.412 160.44 458.99 159.053 457.968 157.288C456.931 155.495 456.415 153.505 456.415 151.32C456.415 149.121 456.931 147.139 457.968 145.373C458.99 143.58 460.412 142.179 462.231 141.171ZM574.183 138.082H572.272V161.091L554.274 138.082H552.657V164.559H554.568V141.57L572.608 164.559H574.183V138.082ZM524.517 138.082H522.606L510.426 164.559H512.505L515.866 157.12H531.216L534.619 164.559H536.698L524.517 138.082ZM523.552 140.204L530.503 155.481H516.621L523.552 140.204ZM543.417 138.082H541.506V164.559H543.417V138.082Z" fill="black" fill-opacity="0.988235"/>
    <path d="M256.305 168.719L237.321 149.723L256.305 130.727V85.359H95.5504V129.844H116.55V106.372H235.305V193.536H116.55V171.871H95.5504V214.549H235.305V275.908H256.305V168.719ZM295.471 24H274.471V131.462L256.221 149.723L274.471 167.984V214.549H435.227V171.871H414.227V193.536H295.471V106.372H414.227V129.844H435.227V85.359H295.471V24Z" fill="#7EC7BA" fill-opacity="0.988235"/>
  </g>
  <defs>
    <clipPath id="clip0_1_10">
      <rect width="600" height="251.908" fill="white" transform="translate(0 24)"/>
    </clipPath>
  </defs>
</svg>
